packages/icons/src/tasBasicSetup.svg

<svg viewBox="0 0 34 33" fill="none" xmlns="http://www.w3.org/2000/svg">
<path d="M18.3303 16.2147L18.2764 23.9948M18.3303 16.2147L10.9473 11.946M18.3303 16.2147L25.308 12.1758M18.2764 23.9948L25.308 19.9245V12.1758M18.2764 23.9948L10.9473 19.73L10.9473 11.946M25.308 12.1758L17.9474 7.90552L10.9473 11.946" stroke="#0278D5" stroke-linecap="round" stroke-linejoin="round"/>
<path d="M4.35352 7.39624L9.16546 10.1744" stroke="#0278D5" stroke-linecap="round"/>
<path d="M7.9082 4.61768L12.7201 7.39585" stroke="#0278D5" stroke-linecap="round"/>
<path d="M4.35352 13.4409L9.16546 16.2191" stroke="#0278D5" stroke-linecap="round"/>
<path d="M29.2487 31.4291H25.839C25.7725 31.4296 25.7066 31.4149 25.6466 31.3862C25.5865 31.3575 25.5338 31.3154 25.4925 31.2632L23.3274 28.5542C23.2849 28.5009 23.2552 28.4386 23.2407 28.372C23.2261 28.3055 23.2271 28.2365 23.2436 28.1703L24.0671 24.8538C24.083 24.7916 24.112 24.7335 24.1522 24.6833C24.1923 24.6332 24.2427 24.5922 24.3 24.5632L27.3519 23.0335C27.4133 23.0031 27.4809 22.9873 27.5494 22.9873C27.618 22.9873 27.6855 23.0031 27.7469 23.0335L30.838 24.565C30.8966 24.5935 30.9482 24.6346 30.9888 24.6856C31.0294 24.7365 31.0581 24.7959 31.0728 24.8594L31.859 28.1759C31.8734 28.2405 31.8732 28.3075 31.8584 28.372C31.8436 28.4364 31.8145 28.4968 31.7733 28.5486L29.5934 31.2651C29.5518 31.3165 29.4993 31.3579 29.4397 31.3863C29.38 31.4146 29.3147 31.4293 29.2487 31.4291ZM25.839 30.9726H29.2412L31.4119 28.2728L30.6293 24.9694L27.5513 23.4453L24.5106 24.9694L23.6889 28.2747L25.839 30.9726Z" fill="#238FCF"/>
<path d="M31.4683 23.954L31.8559 23.6354L27.7773 21.6157V22.1262L31.4683 23.954Z" fill="#1BBFD3"/>
<path d="M22.5229 28.6997L22.0254 28.8096L24.8705 32.3795L25.0941 31.9268L22.5229 28.6997Z" fill="#79BF43"/>
<path d="M27.3194 22.1282V21.6177L23.2949 23.6355L23.6713 23.9597L27.3194 22.1282Z" fill="#1BBFD3"/>
<path d="M23.3996 24.3284L23.012 23.9949L21.9258 28.3622L22.4251 28.2523L23.3996 24.3284Z" fill="#1D4489"/>
<path d="M32.6777 28.2541L33.1752 28.3641L32.1411 23.9949L31.7461 24.3191L32.6777 28.2541Z" fill="#1D4489"/>
<path d="M32.5757 28.6997L29.9766 31.9324L30.1983 32.3851L33.0732 28.8096L32.5757 28.6997Z" fill="#79BF43"/>
<path d="M25.5048 32.1243L25.2812 32.5826H29.7846L29.561 32.1243H25.5048Z" fill="#1BBFD3"/>
</svg>

<svg viewBox="0 0 34 33" fill="none" xmlns="http://www.w3.org/2000/svg"><path d="m18.33 16.215-.054 7.78m.054-7.78-7.383-4.269m7.383 4.269 6.978-4.04m-7.032 11.82 7.032-4.07v-7.75m-7.032 11.82-7.329-4.265v-7.784m14.361.23-7.36-4.27-7 4.04" stroke="#0278D5" stroke-linecap="round" stroke-linejoin="round"/><path d="m4.354 7.396 4.811 2.778M7.908 4.618l4.812 2.778M4.354 13.44l4.811 2.78" stroke="#0278D5" stroke-linecap="round"/><path d="M29.249 31.43h-3.41a.439.439 0 0 1-.346-.167l-2.166-2.709a.444.444 0 0 1-.083-.384l.823-3.316a.452.452 0 0 1 .233-.29l3.052-1.53a.445.445 0 0 1 .395 0l3.091 1.531a.437.437 0 0 1 .235.294l.786 3.317a.444.444 0 0 1-.086.373l-2.18 2.716a.443.443 0 0 1-.344.164Zm-3.41-.457h3.402l2.17-2.7-.782-3.304-3.078-1.524-3.04 1.524-.822 3.306 2.15 2.698Z" fill="#238FCF"/><path d="m31.468 23.954.388-.319-4.079-2.02v.511l3.691 1.828Z" fill="#1BBFD3"/><path d="m22.523 28.7-.498.11 2.846 3.57.223-.453-2.571-3.227Z" fill="#79BF43"/><path d="M27.32 22.128v-.51l-4.025 2.018.376.324 3.648-1.832Z" fill="#1BBFD3"/><path d="m23.4 24.328-.388-.333-1.086 4.367.5-.11.974-3.924ZM32.678 28.254l.497.11-1.034-4.37-.395.325.932 3.935Z" fill="#1D4489"/><path d="m32.576 28.7-2.6 3.232.222.453 2.875-3.575-.497-.11Z" fill="#79BF43"/><path d="m25.505 32.124-.224.459h4.504l-.224-.459h-4.056Z" fill="#1BBFD3"/></svg>
